!!!!SEGMENT: Any1003a-Missa_Miserere_mihi_Domine-Kyrie--Munich_6.krn
!!!id: Any1003a
!!!SMS: Munich 6
!!!AGN: Mass; Kyrie
!!!voices: 8
!!!OPR: Missa Miserere mihi Domine (Munich 6)
!!!COM: Anonymous
!!!OTL: Kyrie
**kern	**kern	**kern	**kern	**kern	**kern	**kern	**kern
*part8	*part7	*part6	*part5	*part4	*part3	*part2	*part1
*staff8	*staff7	*staff6	*staff5	*staff4	*staff3	*staff2	*staff1
*I"Bassus II	*I"Bassus I	*I"Tenor II	*I"Tenor I	*I"Altus	*I"Superius III	*I"Superius II	*I"Superius I
*I'B. II	*I'B. I	*I'T. II	*I'T. I	*I'A	*I'S. III	*I'S. II	*I'S. I
*clefF4	*clefF4	*clefGv2	*clefGv2	*clefGv2	*clefG2	*clefG2	*clefG2
*k[]	*k[]	*k[]	*k[]	*k[]	*k[]	*k[]	*k[]
*C:	*C:	*C:	*C:	*C:	*C:	*C:	*C:
*M2/1	*M2/1	*M2/1	*M2/1	*M2/1	*M2/1	*M2/1	*M2/1
*met(C|)	*met(C|)	*met(C|)	*met(C|)	*met(C|)	*met(C|)	*met(C|)	*met(C|)
=1	=1	=1	=1	=1	=1	=1	=1
!!section: Kyrie I
!!!OMD: Kyrie I
!	!	!	!	!	!	!	!LO:TX:a:t=T I and B II&colon; Miserere mihi, Domine chant with trope text
0r	0GG	0r	[0G	0r	1dd	0r	1r
.	.	.	.	.	2dd	.	1dd
.	.	.	.	.	[2b	.	.
=2	=2	=2	=2	=2	=2	=2	=2
0r	0GG	0r	0G]	0r	4b]	1dd	2dd
.	.	.	.	.	4cc	.	.
.	.	.	.	.	2dd	.	2.b
.	.	.	.	.	1g	2dd	.
.	.	.	.	.	.	.	4cc
.	.	.	.	.	.	[2b	2dd
=3	=3	=3	=3	=3	=3	=3	=3
0r	1GG	0r	0G	0r	2r	4b]	1g
.	.	.	.	.	.	4cc	.
.	.	.	.	.	2.g	2dd	.
.	1C	.	.	.	.	2g	1e
.	.	.	.	.	4f	.	.
.	.	.	.	.	4e	[2cc	.
.	.	.	.	.	4d	.	.
=4	=4	=4	=4	=4	=4	=4	=4
0r	1AA	0r	0A	0r	1c	4cc]	1a
.	.	.	.	.	.	4b	.
.	.	.	.	.	.	4a	.
.	.	.	.	.	.	4g	.
.	1D	.	.	.	1d	4f#i	1d
.	.	.	.	.	.	4e	.
.	.	.	.	.	.	2f#i	.
=5	=5	=5	=5	=5	=5	=5	=5
0r	0GG	0r	0G	1r	1B	2.g	1.dd
.	.	.	.	.	.	4f	.
.	.	.	.	1G	1d	2.d	.
.	.	.	.	.	.	.	4cc
.	.	.	.	.	.	4e	4b
=6	=6	=6	=6	=6	=6	=6	=6
0r	0D	0r	0F	1A	[0d	0f	0a
.	.	.	.	1A	.	.	.
=7	=7	=7	=7	=7	=7	=7	=7
0GG	1.BB	0r	0r	1d	0d_	1.g	2.b
.	.	.	.	.	.	.	4cc
.	.	.	.	[1B	.	.	2dd
.	2C	.	.	.	.	2g	2g
=8	=8	=8	=8	=8	=8	=8	=8
0GG	2D	0G	0r	1B]	0d]	1d	1dd
.	2GG	.	.	.	.	.	.
.	1D	.	.	1B	.	1g	1b
=9	=9	=9	=9	=9	=9	=9	=9
0AA	0C	0C	0r	1A	0r	1e	1cc
.	.	.	.	1r	.	2c	1a
.	.	.	.	.	.	[2f	.
=10	=10	=10	=10	=10	=10	=10	=10
0GG	1BB	0G	0r	1B	1r	2f]	0b
.	.	.	.	.	.	4e	.
.	.	.	.	.	.	4d	.
.	1GG	.	.	1B	[1g	1e	.
=11	=11	=11	=11	=11	=11	=11	=11
0FF	0AA	0C	0r	0c	2g]	0f	0a
.	.	.	.	.	1cc	.	.
.	.	.	.	.	4b	.	.
.	.	.	.	.	4a	.	.
=12	=12	=12	=12	=12	=12	=12	=12
0r	[0GG	[0G	0G	[0d	2b	2d	0r
.	.	.	.	.	2.g	1g	.
.	.	.	.	.	4a	.	.
.	.	.	.	.	4b	4f	.
.	.	.	.	.	4cc	4e	.
=13	=13	=13	=13	=13	=13	=13	=13
0r	0GG]	0G]	0B-X	0d_	1dd	1d	0r
.	.	.	.	.	2r	2r	.
.	.	.	.	.	[2g	2g	.
=14	=14	=14	=14	=14	=14	=14	=14
0r	1r	0D	0A	0d]	2g]	0a	0r
.	.	.	.	.	4f#i	.	.
.	.	.	.	.	4e	.	.
.	1D	.	.	.	1f#i	.	.
=15	=15	=15	=15	=15	=15	=15	=15
0r	0GG	1G	0G	0B	1g	1b	0r
.	.	[1D	.	.	1b	[1dd	.
=16	=16	=16	=16	=16	=16	=16	=16
0r	0D	2D]	0F	[0d	0a	2dd]	[0dd
.	.	2E	.	.	.	4cc	.
.	.	.	.	.	.	4b	.
.	.	2F	.	.	.	1a	.
.	.	2D	.	.	.	.	.
=17	=17	=17	=17	=17	=17	=17	=17
0GG	0GG	[0D	0G	0d]	0g	2b	0dd_
.	.	.	.	.	.	1g	.
.	.	.	.	.	.	4f	.
.	.	.	.	.	.	4e	.
=18	=18	=18	=18	=18	=18	=18	=18
0BB-X	0D	0D]	0G	0r	0r	1.d	0dd]
.	.	.	.	.	.	[2g	.
=19	=19	=19	=19	=19	=19	=19	=19
0AA	1r	1F	0r	0r	0a	2g]	0cc
.	.	.	.	.	.	4f	.
.	.	.	.	.	.	4e	.
.	1AA	1C	.	.	.	1f	.
=20	=20	=20	=20	=20	=20	=20	=20
0GG	1BB	1.D	0r	2.B	1dd	0g	0b
.	.	.	.	4c	.	.	.
.	1GG	.	.	2d	1b	.	.
.	.	2D	.	2G	.	.	.
=21	=21	=21	=21	=21	=21	=21	=21
0FF	1C	1F	1r	1r	0cc	0a	2.a
.	.	.	.	.	.	.	4g
.	1AA	1C	1A	1c	.	.	2f
.	.	.	.	.	.	.	2e
=22	=22	=22	=22	=22	=22	=22	=22
0GG	1.D	0G	0B	1G	1b	1.g	2d
.	.	.	.	.	.	.	1b
.	.	.	.	[1d	[1dd	.	.
.	2E	.	.	.	.	4f	4a
.	.	.	.	.	.	4e	4g
=23	=23	=23	=23	=23	=23	=23	=23
0D	1.F	0A	0A	1d]	2dd]	1d	2f
.	.	.	.	.	4cc	.	1g
.	.	.	.	.	4b	.	.
.	.	.	.	1d	2a	[1ddl	.
.	2D	.	.	.	2dd	.	2f#i
=24	=24	=24	=24	=24	=24	=24	=24
[0GGl	[0Dl	2B	[0Gl	[0dl	[0bl	0dd_	[0gl
.	.	1G	.	.	.	.	.
.	.	4F	.	.	.	.	.
.	.	4E	.	.	.	.	.
=25	=25	=25	=25	=25	=25	=25	=25
0GG_	0D_	1D	0G_	0d_	0b_	0dd_	0g_
.	.	1d	.	.	.	.	.
=26	=26	=26	=26	=26	=26	=26	=26
0GG]	0D]	0G 0B>l	0G]	0d]	0b]	0dd]	0g]
=27||	=27||	=27||	=27||	=27||	=27||	=27||	=27||
*M2/1	*M2/1	*M2/1	*M2/1	*M2/1	*M2/1	*M2/1	*M2/1
*met(C|)	*met(C|)	*met(C|)	*met(C|)	*met(C|)	*met(C|)	*met(C|)	*met(C|)
!!section: Christe
!!!OMD: Christe
!	!	!	!	!	!	!	!LO:TX:a:t=T I and B II&colon; Miserere mihi, Domine chant with trope text
0r	[0G	0r	0r	0r	0r	1.g	1.g
.	.	.	.	.	.	2f	2a
=28	=28	=28	=28	=28	=28	=28	=28
0r	0G]	0r	0r	1.g	0r	1e	2b
.	.	.	.	.	.	.	2cc
.	.	.	.	.	.	1d	1dd
.	.	.	.	2f	.	.	.
=29	=29	=29	=29	=29	=29	=29	=29
0r	1G	1E	0r	1e	0r	1g	1g
.	[1F	1F	.	[1d	.	[1a	1r
=30	=30	=30	=30	=30	=30	=30	=30
0r	1F]	1D	0r	2d]	0r	1a]	0r
.	.	.	.	2c	.	.	.
.	1E	[1G	.	[1c	.	2g	.
.	.	.	.	.	.	2e	.
=31	=31	=31	=31	=31	=31	=31	=31
0r	0D	2G]	0r	1c]	0r	0f	0dd
.	.	4F	.	.	.	.	.
.	.	4E	.	.	.	.	.
.	.	2F	.	1B	.	.	.
.	.	2G	.	.	.	.	.
=32	=32	=32	=32	=32	=32	=32	=32
0AA	1.C	1A	0r	1.c	0r	[0e	[0ee
.	.	[1c	.	.	.	.	.
.	2D	.	.	2B	.	.	.
=33	=33	=33	=33	=33	=33	=33	=33
0C	[0E	2c]	0r	2A	1.cc	0e_	1ee]
.	.	2B	.	2G	.	.	.
.	.	2A	.	2A	.	.	1cc
.	.	2G	.	2B	2b	.	.
=34	=34	=34	=34	=34	=34	=34	=34
0C	1E]	1A	0r	2.c	1a	0e]	0cc
.	.	.	.	4d	.	.	.
.	1C	1E	.	1e	1g	.	.
=35	=35	=35	=35	=35	=35	=35	=35
0D	1F	0F	0A	2e	1.f	0a	0r
.	.	.	.	4d	.	.	.
.	.	.	.	4c	.	.	.
.	1D	.	.	1d	.	.	.
.	.	.	.	.	2g	.	.
=36	=36	=36	=36	=36	=36	=36	=36
0AA	0C	1E	0c	1e	1a	0r	2.cc
.	.	.	.	.	.	.	4b
.	.	2F	.	1r	2.cc	.	2a
.	.	2E	.	.	.	.	2g
.	.	.	.	.	4b	.	.
=37	=37	=37	=37	=37	=37	=37	=37
0r	0r	2A	0c	0r	2a	0r	2.cc
.	.	2E	.	.	2g	.	.
.	.	.	.	.	.	.	4b
.	.	2A	.	.	2.cc	.	2a
.	.	2E	.	.	.	.	2g
.	.	.	.	.	4b	.	.
=38	=38	=38	=38	=38	=38	=38	=38
0r	0r	1F	0d	0r	2a	0r	1.f
.	.	.	.	.	2g	.	.
.	.	1D	.	.	1f	.	.
.	.	.	.	.	.	.	4e
.	.	.	.	.	.	.	4d
=39	=39	=39	=39	=39	=39	=39	=39
0r	0r	1A	0A	0r	1e	0r	0c
.	.	1r	.	.	1c	.	.
=40	=40	=40	=40	=40	=40	=40	=40
0r	0r	0r	0r	2.A	0c	2.cc	0r
.	.	.	.	4G	.	4b	.
.	.	.	.	2F	.	2a	.
.	.	.	.	2E	.	2g	.
=41	=41	=41	=41	=41	=41	=41	=41
0r	0r	0r	0r	2.A	1c	2.cc	0r
.	.	.	.	4G	.	4b	.
.	.	.	.	2F	1cc	2a	.
.	.	.	.	2E	.	2g	.
=42	=42	=42	=42	=42	=42	=42	=42
0r	0r	0r	0r	1.F	1.a	1.f	0r
.	.	.	.	2G	4g	4e	.
.	.	.	.	.	4f	4d	.
=43	=43	=43	=43	=43	=43	=43	=43
0AA	1.C	1.A	0r	1.A	2e	0c	2e
.	.	.	.	.	2.a	.	2f
.	.	.	.	.	.	.	2e
.	.	.	.	.	4b	.	.
.	2D	4G	.	2B	[2cc	.	[2a
.	.	4F	.	.	.	.	.
=44	=44	=44	=44	=44	=44	=44	=44
0AA	1E	1E	0r	1c	4cc]	0cc	2a]
.	.	.	.	.	4b	.	.
.	.	.	.	.	4a	.	1g
.	.	.	.	.	4g	.	.
.	1C	1A	.	1A	1a	.	.
.	.	.	.	.	.	.	2f#i
=45	=45	=45	=45	=45	=45	=45	=45
0GG	0D	0D	0r	1B	1dd	0b	2.g
.	.	.	.	.	.	.	4a
.	.	.	.	1B	1d	.	2b
.	.	.	.	.	.	.	2g
=46	=46	=46	=46	=46	=46	=46	=46
[0FF	1.AA	1.A	0A	[0c	1f	0a	1.cc
.	.	.	.	.	1f	.	.
.	2BB	2G	.	.	.	.	2b
=47	=47	=47	=47	=47	=47	=47	=47
0FF]	2C	1F	0A	1c]	0f	0a	2.a
.	2AA	.	.	.	.	.	.
.	.	.	.	.	.	.	4g
.	1C	1A	.	1A	.	.	1f
=48	=48	=48	=48	=48	=48	=48	=48
0GG	2.BB	[0D	0G	1d	0r	0b	1d
.	4C	.	.	.	.	.	.
.	2D	.	.	[1d	.	.	[1dd
.	2E	.	.	.	.	.	.
=49	=49	=49	=49	=49	=49	=49	=49
0D	1.F	0D_	0F	2d]	0r	0a	0dd_
.	.	.	.	4c	.	.	.
.	.	.	.	4B	.	.	.
.	.	.	.	2A	.	.	.
.	2D	.	.	2d	.	.	.
=50	=50	=50	=50	=50	=50	=50	=50
0GG	0D	0D]	0G	0B	0r	0b	1dd]
.	.	.	.	.	.	.	1b
=51	=51	=51	=51	=51	=51	=51	=51
[0FF	[0F	2.A	0A	2r	[0a	[0a	[0cc
.	.	.	.	2.A	.	.	.
.	.	4B	.	.	.	.	.
.	.	2c	.	.	.	.	.
.	.	.	.	4B	.	.	.
.	.	2F	.	2c	.	.	.
=52	=52	=52	=52	=52	=52	=52	=52
0FF]	0F]	2c	0A	2F	0a]	0a]	0cc]
.	.	2F	.	2c	.	.	.
.	.	2c	.	2F	.	.	.
.	.	2F	.	2c	.	.	.
=53	=53	=53	=53	=53	=53	=53	=53
0GG	1.D	1r	0G	1r	[0dd	2.b	2b
.	.	.	.	.	.	.	1dd
.	.	.	.	.	.	4cc	.
.	.	[1D	.	[1d	.	2dd	.
.	2E	.	.	.	.	[2g	[2dd
=54	=54	=54	=54	=54	=54	=54	=54
0D	1.F	1D]	0A	0d_	0dd]	2g]	4dd]
.	.	.	.	.	.	.	4cc
.	.	.	.	.	.	4f#i	2b
.	.	.	.	.	.	4e	.
.	.	1d	.	.	.	1f#i	1a
.	2D	.	.	.	.	.	.
=55	=55	=55	=55	=55	=55	=55	=55
[0GGl	[0Dl	2B	[0Gl	1d]	[0ddl	[0gl	1.b
.	.	2G	.	.	.	.	.
.	.	2B	.	[1B	.	.	.
.	.	2c	.	.	.	.	2g
=56	=56	=56	=56	=56	=56	=56	=56
0GG_	0D_	1.d	0G_	2B]	0dd_	0g_	2b
.	.	.	.	2G	.	.	2cc
.	.	.	.	2B	.	.	[1dd
.	.	2c	.	2c	.	.	.
=57	=57	=57	=57	=57	=57	=57	=57
0GG_	0D_	2B	0G_	1.d	0dd_	0g_	2dd]
.	.	2A	.	.	.	.	2cc
.	.	[1G	.	.	.	.	2b
.	.	.	.	2c	.	.	2a
=58	=58	=58	=58	=58	=58	=58	=58
0GG_	0D_	2G]	0G_	2B	0dd_	0g_	1.g
.	.	4F	.	2A	.	.	.
.	.	4E	.	.	.	.	.
.	.	1D	.	2.G	.	.	.
.	.	.	.	.	.	.	4f
.	.	.	.	4A	.	.	4e
=59	=59	=59	=59	=59	=59	=59	=59
0GG_	0D_	1d	0G_	1.B	0dd_	0g_	1d
.	.	2.B	.	.	.	.	1dd
.	.	.	.	2G	.	.	.
.	.	4c	.	.	.	.	.
=60	=60	=60	=60	=60	=60	=60	=60
0GG]	0D]	0dl	0G]	0dl	0dd]	0g]	0bl
=61||	=61||	=61||	=61||	=61||	=61||	=61||	=61||
*M2/1	*M2/1	*M2/1	*M2/1	*M2/1	*M2/1	*M2/1	*M2/1
*met(C|)	*met(C|)	*met(C|)	*met(C|)	*met(C|)	*met(C|)	*met(C|)	*met(C|)
!!section: Kyrie II
!!!OMD: Kyrie II
!	!	!	!	!	!	!	!LO:TX:a:t=T I&colon; Miserere mihi, Domine chant with trope text
0GG	0G	0r	0G	0r	0g	0d	0dd
=62	=62	=62	=62	=62	=62	=62	=62
1GG	2.G	0r	0G	0r	0g	1d	0b
.	4F	.	.	.	.	.	.
1G	1E	.	.	.	.	1e	.
=63	=63	=63	=63	=63	=63	=63	=63
1C	1AA	0r	0A	0r	1e	1c	2.cc
.	.	.	.	.	.	.	4b
1F	1D	.	.	.	1f	1d	1a
=64	=64	=64	=64	=64	=64	=64	=64
[0D	0GG	0G	0G	0d	0g	1.d	0b
.	.	.	.	.	.	2e	.
=65	=65	=65	=65	=65	=65	=65	=65
0D]	0D	1D	0F	0d	0a	0f	1.a
.	.	1F	.	.	.	.	.
.	.	.	.	.	.	.	2b
=66	=66	=66	=66	=66	=66	=66	=66
1G	1C	2.E	0r	0e	2r	2.g	2cc
.	.	.	.	.	1g	.	4b
.	.	4F	.	.	.	4a	4a
1r	1r	2G	.	.	.	2b	2g
.	.	2A	.	.	2c	[2cc	2e
=67	=67	=67	=67	=67	=67	=67	=67
0r	0r	1F	0r	0d	1f	2cc]	1a
.	.	.	.	.	.	4b	.
.	.	.	.	.	.	4a	.
.	.	1G	.	.	1d	1b	1g
=68	=68	=68	=68	=68	=68	=68	=68
0G	0E	0C	0G	0c	1.e	0cc	[0g
.	.	.	.	.	2f	.	.
=69	=69	=69	=69	=69	=69	=69	=69
0GG	[0D	0G	0B-X	0d	1g	0r	0g]
.	.	.	.	.	2r	.	.
.	.	.	.	.	[2g	.	.
=70	=70	=70	=70	=70	=70	=70	=70
0D	1D]	1r	0A	0f	2g]	0r	0r
.	.	.	.	.	4f	.	.
.	.	.	.	.	4e	.	.
.	1F	1D	.	.	1f	.	.
=71	=71	=71	=71	=71	=71	=71	=71
1E	1C	1G	0G	0e	0g	1r	0r
1C	1E	1E	.	.	.	1cc	.
=72	=72	=72	=72	=72	=72	=72	=72
1D	1F	1A	1F	1d	0r	2.a	0r
.	.	.	.	.	.	4b	.
1E	1C	1E	1G	1c	.	4cc	.
.	.	.	.	.	.	4b	.
.	.	.	.	.	.	4a	.
.	.	.	.	.	.	4g	.
=73	=73	=73	=73	=73	=73	=73	=73
0D	2F	1r	0A	[0d	0a	2f	0dd
.	2D	.	.	.	.	1g	.
.	1D	1A	.	.	.	.	.
.	.	.	.	.	.	2f#i	.
=74	=74	=74	=74	=74	=74	=74	=74
1GG	1D	0B	[0G	1d]	1dd	1.g	1b
2.GG	2.BB	.	.	2r	2.dd	.	[1dd
.	.	.	.	[2g	.	[2d	.
4AA	4C	.	.	.	4cc	.	.
=75	=75	=75	=75	=75	=75	=75	=75
2BB	2D	2.G	0G_	4g]	2b	2d]	2dd]
.	.	.	.	4f	.	.	.
2C	2E	.	.	2e	2g	1g	2cc
.	.	4A	.	.	.	.	.
2.GG	2.BB	2B	.	2d	2.dd	.	2b
.	.	2G	.	[2g	.	[2d	[2dd
4AA	4C	.	.	.	4cc	.	.
=76	=76	=76	=76	=76	=76	=76	=76
2BB	2D	2.G	0G_	4g]	2b	2d]	2dd]
.	.	.	.	4f	.	.	.
2C	2E	.	.	2e	2g	1g	2cc
.	.	4A	.	.	.	.	.
2.GG	2.BB	2B	.	2d	2.dd	.	2b
.	.	2G	.	[2g	.	[2d	[2dd
4AA	4C	.	.	.	4cc	.	.
=77	=77	=77	=77	=77	=77	=77	=77
2BB	2D	2.G	0G]	4g]	2b	2d]	2dd]
.	.	.	.	4f	.	.	.
2C	2E	.	.	2e	2g	2g	2cc
.	.	4A	.	.	.	.	.
1GG	1BB	4B	.	1d	1dd	1g	1b
.	.	4c	.	.	.	.	.
.	.	2d	.	.	.	.	.
=78	=78	=78	=78	=78	=78	=78	=78
2r	1D	4D	0r	[0d	[0dd	2r	2r
.	.	4E	.	.	.	.	.
1D	.	4F	.	.	.	1a	2.dd
.	.	4G	.	.	.	.	.
.	2F	2A	.	.	.	.	.
.	.	.	.	.	.	.	4cc
2GG	2G	4B	.	.	.	2g	2b
.	.	4G	.	.	.	.	.
=79	=79	=79	=79	=79	=79	=79	=79
2D	2.D	2.A	0r	0d_	0dd_	2f	2a
1D	.	.	.	.	.	1a	2.dd
.	4E	4G	.	.	.	.	.
.	2F	2A	.	.	.	.	.
.	.	.	.	.	.	.	4cc
2GG	2G	4B	.	.	.	2g	2b
.	.	4G	.	.	.	.	.
=80	=80	=80	=80	=80	=80	=80	=80
2D	2.D	2.A	0r	0d_	0dd_	2f	2a
1D	.	.	.	.	.	1a	2.dd
.	4E	4G	.	.	.	.	.
.	2F	2A	.	.	.	.	.
.	.	.	.	.	.	.	4cc
2GG	2G	4B	.	.	.	2g	2b
.	.	4G	.	.	.	.	.
=81	=81	=81	=81	=81	=81	=81	=81
2D	2D	2A	0r	0d_	0dd_	2f	2a
4GG	1G	2B	.	.	.	2.d	2.dd
4AA	.	.	.	.	.	.	.
4BB	.	[1d	.	.	.	.	.
4C	.	.	.	.	.	4e	4cc
4D	[2F	.	.	.	.	4f	2b
4GG	.	.	.	.	.	4g	.
=82	=82	=82	=82	=82	=82	=82	=82
0D	2F]	2d]	1A	0d_	0dd_	2a	1a
.	2D	4c	.	.	.	1g	.
.	.	4B	.	.	.	.	.
.	[1D	1A	1A	.	.	.	1dd
.	.	.	.	.	.	2f#i	.
=83	=83	=83	=83	=83	=83	=83	=83
2.GG	0D]	0B	0G	0d]	0dd]	1g	2.b
4AA	.	.	.	.	.	.	4cc
2.BB	.	.	.	.	.	2.d	2.dd
4C	.	.	.	.	.	4e	8ccL
.	.	.	.	.	.	.	8bJ
=84	=84	=84	=84	=84	=84	=84	=84
2.D	1D	1r	0F	0r	1r	2.f	2.a
8CL	.	.	.	.	.	4g	4b
8BBJ	.	.	.	.	.	.	.
2AA	2C	[1c	.	.	1cc	2.a	2.cc
2FF	2D	.	.	.	.	.	.
.	.	.	.	.	.	8gL	8bL
.	.	.	.	.	.	8fJ	8aJ
=85	=85	=85	=85	=85	=85	=85	=85
1.C	1E	2c]	0G	0c	[0cc	2.e	2g
.	.	4B	.	.	.	.	2f
.	.	4A	.	.	.	4f	.
.	1E	1G	.	.	.	1g	2e
2BB	.	.	.	.	.	.	2d
=86	=86	=86	=86	=86	=86	=86	=86
2AA	2F	1c	0A	1c	0cc]	1c	0c
2GG	2G	.	.	.	.	.	.
1FF	1A	[1A	.	[1f	.	2.cc	.
.	.	.	.	.	.	4b	.
=87	=87	=87	=87	=87	=87	=87	=87
1F	1D	1A]	1F	2f]	0r	1a	1d
.	.	.	.	1d	.	.	.
1E	1E	1r	1G	.	.	[1g	1r
.	.	.	.	2c#i	.	.	.
=88	=88	=88	=88	=88	=88	=88	=88
0D	1.F	0A	0A	[0d	0a	2g]	0dd
.	.	.	.	.	.	4f#i	.
.	.	.	.	.	.	4e	.
.	.	.	.	.	.	1f#i	.
.	2D	.	.	.	.	.	.
=89	=89	=89	=89	=89	=89	=89	=89
0GG	0D	2B	0G	0d]	1.dd	0g	1.b
.	.	2.d	.	.	.	.	.
.	.	4c	.	.	.	.	.
.	.	4B	.	.	2cc	.	2cc
.	.	4A	.	.	.	.	.
=90	=90	=90	=90	=90	=90	=90	=90
1GG	1D	2G	1G	2r	1b	1r	1dd
.	.	2B	.	1d	.	.	.
1C	1AA	1c	1C	.	1a	2.e	1ee
.	.	.	.	2c	.	.	.
.	.	.	.	.	.	4f	.
=91	=91	=91	=91	=91	=91	=91	=91
0GGl	0Dl	0Bl	0Gl	0dl	0bl	0gl	0ddl
==	==	==	==	==	==	==	==
*-	*-	*-	*-	*-	*-	*-	*-
!!!system-decoration: s1,s2,s3,s4,s5,s6,s7,s8
!!!RDF**kern: i = editorial accidental
!!!RDF**kern: l = terminal long
!!!ENC: Maura Sugg
!!!END: 2026/7/2
!!!EED: Benjamin Ory
!!!EEV: 2026/07/14
!!!YEC: Copyright 2026 Benjamin Ory, All Rights Reserved
!!!ONB: Translated from MusicXML on 2026/07/14
!!!verovio: header encoded
!!!header-left: Edited by Zoe Saunders (2010)\n
!!!header-right:
!!!header-center: